X: 136
T: Fork Horned Buck
B: canberra pickers and fiddlers
B: old time tunes update
B: tunes
M:4/4
L:1/8
Q: 1/4=100
K:D
V:1 
|: (3ABc | defg a2fa | g2gb agfe | defg a2fa | gfed cABc |
defg a2fa | g2gb agfe | dAFD GBAG | FDEF D3 :|
|: (A|A2)A2c4 | ABAF E2 EF | A2AB c2cA | BAFE FD3 |
A2A2c4 | ABAF E2FE | D2ED FDGD | FDEF D3:||
% abcbook-tune_id 67a7d9ecf22a6d8c1a0eb90c
% abcbook-tune_composer_id 
% abcbook-link-0 https://www.youtube.com/watch?v=65cJtMJ2-vo
% abcbook-link-title-0 Fork Horned Buck
% abcbook-boost 0
% abcbook-difficulty 0
% abcbook-tags old time tunes
% abcbook-tablature 
% abcbook-transpose 
% abcbook-tuning ADAE
% abcbook-lastupdated 1739262852246
% abcbook-src-url 
% abcbook-soundfonts 
% abcbook-repeats 1


